X: 2203
T: Australian Waters
R: jig
M: 6/8
K: Dmajor
A/B/c|:"D"dAG FAD|"C"=cBc ed^c|"D"dAF FGE|"A"DFA fge|
"D"d2D FED|"C"EG=c ed^c|"D"dAG "A"FGE|1 EDA D3:|2 EDA Dz A||
|:"D"dcd efg|"Em"fed "A"cAA|"D"dcd efg|"A"fdc d2f|
"G"gbg "D"faf|"A"ecA GAc|"G"dAG FGE|1 "A"EDA DFA:|2 "A" EDA D3||

